file/oreilly-media.svg

<svg clip-rule="evenodd" fill-rule="evenodd" stroke-linejoin="round" stroke-miterlimit="1.41421" viewBox="0 0 560 400" xmlns="http://www.w3.org/2000/svg"><path d="m90.8 125.5c0 4.2-3.4 7.6-7.6 7.6s-7.6-3.4-7.6-7.6 3.4-7.6 7.6-7.6 7.6 3.3 7.6 7.6zm-14.4 24.7c0 17.9-14.5 32.4-32.4 32.4s-32.4-14.5-32.4-32.4 14.5-32.4 32.4-32.4c18 0 32.4 14.5 32.4 32.4zm-10.3 0c0-6.1-2.5-11.6-6.4-15.6-4-4-9.5-6.4-15.6-6.4s-11.6 2.5-15.6 6.4c-4 4-6.4 9.5-6.4 15.6s2.5 11.6 6.4 15.6c4 4 9.5 6.4 15.6 6.4s11.6-2.5 15.6-6.4c3.9-4.1 6.4-9.5 6.4-15.6zm68.4 4.1 16.1 26.7h-12.1l-15.6-25.9h-14.4v25.9h-10.4v-62.1h31.2c10 0 18.1 8.1 18.1 18.1 0 8.2-5.4 15.1-12.9 17.3zm-5.2-9.6c4.3 0 7.8-3.5 7.8-7.8s-3.5-7.8-7.8-7.8h-20.9v15.5h20.9zm210.3-2.8-15.9-23.1h-12.6l23.3 33.8v28.4h10.4v-28.3l23.3-33.8h-12.6zm48.4-16.8c0 4.2-3.4 7.7-7.7 7.7-4.2 0-7.7-3.4-7.7-7.7 0-4.2 3.4-7.7 7.7-7.7 4.3.1 7.7 3.5 7.7 7.7zm-1.2 0c0-3.6-2.9-6.4-6.4-6.4-3.6 0-6.4 2.9-6.4 6.4 0 3.6 2.9 6.4 6.4 6.4 3.5.1 6.4-2.8 6.4-6.4zm-4.7.5 1.6 3.3h-1.4l-1.6-3.3h-2.2v3.3h-1.3v-7.8h4.3c1.3 0 2.3 1 2.3 2.3 0 1.1-.7 2-1.7 2.2zm.4-2.2c0-.5-.4-1-1-1h-3v2h3c.5 0 1-.4 1-1zm-224.7 57.6h43.2v-10.4h-32.8v-15.5h31.3v-10.4h-31.3v-15.5h32.8v-10.3h-43.2zm85.6-62.2h-10.4v62.2h40.2v-10.4h-29.9v-51.8zm48.7 0h-10.4v62.2h40.2v-10.4h-29.9v-51.8zm-80.2 62.2h10.4v-62.1h-10.4z" fill="#d3002d" transform="matrix(1.32837 0 0 1.32837 14.5909 .743889)"/></svg>

<?xml version="1.0" encoding="UTF-8" standalone="no"?>
<!DOCTYPE svg PUBLIC "-//W3C//DTD SVG 1.1//EN" "http://www.w3.org/Graphics/SVG/1.1/DTD/svg11.dtd">
<svg width="100%" height="100%" viewBox="0 0 560 400" version="1.1" xmlns="http://www.w3.org/2000/svg" xmlns:xlink="http://www.w3.org/1999/xlink" xml:space="preserve" xmlns:serif="http://www.serif.com/" style="fill-rule:evenodd;clip-rule:evenodd;stroke-linejoin:round;stroke-miterlimit:1.41421;">
    <g id="logo" transform="matrix(1.32837,0,0,1.32837,14.5909,0.743889)">
        <path d="M90.8,125.5C90.8,129.7 87.4,133.1 83.2,133.1C79,133.1 75.6,129.7 75.6,125.5C75.6,121.3 79,117.9 83.2,117.9C87.4,117.9 90.8,121.2 90.8,125.5ZM76.4,150.2C76.4,168.1 61.9,182.6 44,182.6C26.1,182.6 11.6,168.1 11.6,150.2C11.6,132.3 26.1,117.8 44,117.8C62,117.8 76.4,132.3 76.4,150.2ZM66.1,150.2C66.1,144.1 63.6,138.6 59.7,134.6C55.7,130.6 50.2,128.2 44.1,128.2C38,128.2 32.5,130.7 28.5,134.6C24.5,138.6 22.1,144.1 22.1,150.2C22.1,156.3 24.6,161.8 28.5,165.8C32.5,169.8 38,172.2 44.1,172.2C50.2,172.2 55.7,169.7 59.7,165.8C63.6,161.7 66.1,156.3 66.1,150.2ZM134.5,154.3L150.6,181L138.5,181L122.9,155.1L108.5,155.1L108.5,181L98.1,181L98.1,118.9L129.3,118.9C139.3,118.9 147.4,127 147.4,137C147.4,145.2 142,152.1 134.5,154.3ZM129.3,144.7C133.6,144.7 137.1,141.2 137.1,136.9C137.1,132.6 133.6,129.1 129.3,129.1L108.4,129.1L108.4,144.6L129.3,144.6L129.3,144.7ZM339.6,141.9L323.7,118.8L311.1,118.8L334.4,152.6L334.4,181L344.8,181L344.8,152.7L368.1,118.9L355.5,118.9L339.6,141.9ZM388,125.1C388,129.3 384.6,132.8 380.3,132.8C376.1,132.8 372.6,129.4 372.6,125.1C372.6,120.9 376,117.4 380.3,117.4C384.6,117.5 388,120.9 388,125.1ZM386.8,125.1C386.8,121.5 383.9,118.7 380.4,118.7C376.8,118.7 374,121.6 374,125.1C374,128.7 376.9,131.5 380.4,131.5C383.9,131.6 386.8,128.7 386.8,125.1ZM382.1,125.6L383.7,128.9L382.3,128.9L380.7,125.6L378.5,125.6L378.5,128.9L377.2,128.9L377.2,121.1L381.5,121.1C382.8,121.1 383.8,122.1 383.8,123.4C383.8,124.5 383.1,125.4 382.1,125.6ZM382.5,123.4C382.5,122.9 382.1,122.4 381.5,122.4L378.5,122.4L378.5,124.4L381.5,124.4C382,124.4 382.5,124 382.5,123.4ZM157.8,181L201,181L201,170.6L168.2,170.6L168.2,155.1L199.5,155.1L199.5,144.7L168.2,144.7L168.2,129.2L201,129.2L201,118.9L157.8,118.9L157.8,181ZM243.4,118.8L233,118.8L233,181L273.2,181L273.2,170.6L243.3,170.6L243.3,118.8L243.4,118.8ZM292.1,118.8L281.7,118.8L281.7,181L321.9,181L321.9,170.6L292,170.6L292,118.8L292.1,118.8ZM211.9,181L222.3,181L222.3,118.9L211.9,118.9L211.9,181Z" style="fill:rgb(211,0,45);"/>
    </g>
</svg>
